X:1
M:3/4
L:1/8
K:G
V:A
D2 _ez [B^D^F]F | [K:E]Z3 |[K:F] E6 |
V:B
G4 F2 |[K:E]A4 A2 | B6 | Z1 |[K:G] Z1 |
V:A
B2 D2 ^F^F| FE FE FE |
V:B
A2 D2 ^Fc| G4 F2 |
